//distance from the origin to the leg of a right-angle triangle in order
//for the origin to be the centroid of the triangle
ra_ratio = ( sqrt ( 2 ) / 4 ) / tan ( 45 )

startshape ALL_TEST []

shape ALL_TEST
{
	SQ_TEST    [ x 0 y 0 ]
	RA_TEST    [ x 1 y 0 ]
	RA_RA_TEST [ x 2 y 0 ]
	RA_SQ_TEST [ x 0 y 1 ]
	SQ_RA_TEST [ x 1 y 1 ]
}

shape SQ_TEST
{
	SQUARE [ b 1 sat 1 ]

	loop i=4 [ x 0.25 ]
	{
		loop j=4 [ y 0.25 ]
		{
			SQUARE [  x (-0.5+(1/8)) y (-0.5+(1/8)) s 0.23 b -0.9 ]
		}
	}
}

shape RA_TEST
{
	RA [ sat 1  b 1]
	RA [ s 0.95 ]

	RA_TEST [ s 0.7 ] 

	//SQUARE   [ s 0.5 x 0.25 y -0.25 ]

	//RA   [ s 0.5 x 0.25 y 0.25 ]
	//RA   [ s 0.5 x -0.25 y -0.25 ]
}

shape RA_RA_TEST
{
	RA []

	RA [ b 1 sat 1 x (0.5-(ra_ratio/2)) y (ra_ratio/2) s 0.5 ]

	RA [ b 1 sat 1 x -(ra_ratio/2) y (-0.5+(ra_ratio/2)) s 0.5 ]

	SQUARE [ a -0.5 ]

	sX = -1 * ( 0.25 - (1-ra_ratio) ) - 0.5
	sY = ( 0.25 - (1-ra_ratio) ) + 0.5
	
	SQUARE [ a -0.5 b 1 sat 1 h 120 x sX y sY s 0.5 ]
}
shape RA_SQ_TEST
{
	SQUARE []

	X = -0.5 + ra_ratio
	Y =  0.5 - ra_ratio

	RA [ b 1 sat 1 x X y Y ]
	RA [ x X y Y s 0.9 ]
}

shape SQ_RA_TEST
{
	SQUARE []

	X1 = -0.5 + ra_ratio/2
	Y1 =  0.5 - ra_ratio/2

	X2 = 0.5 - ra_ratio/2
	Y2 = Y1

	X3 = X2
	Y3 = -0.5 + ra_ratio/2

	X4 = X1
	Y4 = Y3

	RA [ b 1 sat 1 x X1 y Y1 s 0.5 ]
	RA [ b 1 sat 1 x X2 y Y2 s 0.5 r 270 ]
	RA [ b 1 sat 1 x X3 y Y3 s 0.5 r 180 ]
	RA [ b 1 sat 1 x X4 y Y4 s 0.5 r 90 ]
}

//vertex points for unit right angle
ra_x1 = -1 * ra_ratio
ra_y1 = -1 - ra_x1

path RA
{
	MOVETO ( ra_x1, ra_y1 )

	LINETO (   ra_x1, ra_y1+1 )
	LINETO ( ra_x1+1, ra_y1+1 )

	CLOSEPOLY ()

	FILL  () []
}
