//distance from the origin to the leg of a right-angle triangle in order
//for the origin to be the centroid of the triangle
ra_ratio = ( sqrt ( 2 ) / 4 ) / tan ( 45 )

startshape RA_RA_TEST []

shape SQ_TEST
{
	SQUARE [ b 1 sat 1 ]

	loop i=4 [ x 0.25 ]
	{
		loop j=4 [ y 0.25 ]
		{
			SQUARE [  x (-0.5+(1/8)) y (-0.5+(1/8)) s 0.25 a -0.9 ]
		}
	}
}

shape RA_TEST
{
	RA [ sat 1  b 1]
	RA [ s 0.95 ]

	RA_TEST [ s 0.7 ] 

	//SQUARE   [ s 0.5 x 0.25 y -0.25 ]

	//RA   [ s 0.5 x 0.25 y 0.25 ]
	//RA   [ s 0.5 x -0.25 y -0.25 ]
}

shape RA_RA_TEST
{
	RA []

	RA [ b 1 sat 1 x (0.5-(ra_ratio/2)) y (ra_ratio/2) s 0.5 ]

	RA [ b 1 sat 1 x -(ra_ratio/2) y (-0.5+(ra_ratio/2)) s 0.5 ]
}
shape RA_SQ_TEST
{
	SQUARE []

	X = -0.5 + ra_ratio
	Y =  0.5 - ra_ratio

	RA [ b 1 sat 1 x X y Y ]
}

//vertex points for unit right angle
ra_x1 = -1 * ra_ratio
ra_y1 = -1 - ra_x1

path RA
{
	MOVETO ( ra_x1, ra_y1 )

	LINETO (   ra_x1, ra_y1+1 )
	LINETO ( ra_x1+1, ra_y1+1 )

	CLOSEPOLY ()

	FILL  () []
}
